icons/svg/icons8/beer_bottle.svg

<svg width="26" height="26" viewBox="0 0 26 26" fill="none" xmlns="http://www.w3.org/2000/svg">
<path d="M15 2V1C15 0.448 14.553 0 14 0H12C11.447 0 11 0.448 11 1V2H15Z" fill="#333333"/>
<path d="M18 12.542C18 10.292 15.2 8 15.2 8L14.486 1C14.486 0.448 14.039 0 13.486 0H12.513C11.96 0 11.513 0.448 11.513 1L10.8 8C10.8 8 8 10.292 8 12.542C8 14.75 8.4 16.275 8.4 18.276C8.4 21.334 8 22.542 8 25C8 25.584 8.447 26 9 26H17C17.553 26 18 25.584 18 25C18 22.542 17.6 21.334 17.6 18.275C17.6 16.274 18 14.75 18 12.542ZM13 22C11.344 22 10 21 10 17.5C10 14 11.344 13 13 13C14.656 13 16 14 16 17.5C16 21 14.656 22 13 22Z" fill="#333333"/>
<path d="M10.8589 17.5C10.8589 18.1 10.9169 18.592 11.0169 19H14.9819C15.0829 18.592 15.1399 18.1 15.1399 17.5C15.1399 16.9 15.0819 16.408 14.9819 16H11.0169C10.9169 16.408 10.8589 16.9 10.8589 17.5Z" fill="#333333"/>
</svg>

<?xml version="1.0" encoding="utf-8"?>
<!-- Generator: Adobe Illustrator 16.0.0, SVG Export Plug-In . SVG Version: 6.00 Build 0)  -->
<!DOCTYPE svg PUBLIC "-//W3C//DTD SVG 1.1//EN" "http://www.w3.org/Graphics/SVG/1.1/DTD/svg11.dtd">
<svg version="1.1" id="Layer_1" xmlns="http://www.w3.org/2000/svg" xmlns:xlink="http://www.w3.org/1999/xlink" x="0px" y="0px"
	 width="26px" height="26px" viewBox="0 0 26 26" enable-background="new 0 0 26 26" xml:space="preserve">
<rect fill="none" width="26" height="26"/>
<path fill="#333333" d="M15,2V1c0-0.552-0.447-1-1-1h-2c-0.553,0-1,0.448-1,1v1H15z"/>
<path fill="#333333" d="M18,12.542C18,10.292,15.2,8,15.2,8l-0.714-7c0-0.552-0.447-1-1-1h-0.973c-0.553,0-1,0.448-1,1L10.8,8
	c0,0-2.8,2.292-2.8,4.542c0,2.208,0.4,3.733,0.4,5.734C8.4,21.334,8,22.542,8,25c0,0.584,0.447,1,1,1h8c0.553,0,1-0.416,1-1
	c0-2.458-0.4-3.666-0.4-6.725C17.6,16.274,18,14.75,18,12.542z M13,22c-1.656,0-3-1-3-4.5s1.344-4.5,3-4.5s3,1,3,4.5
	S14.656,22,13,22z"/>
<path fill="#333333" d="M10.859,17.5c0,0.6,0.058,1.092,0.158,1.5h3.965c0.101-0.408,0.158-0.9,0.158-1.5s-0.058-1.092-0.158-1.5
	h-3.965C10.917,16.408,10.859,16.9,10.859,17.5z"/>
</svg>
